build/Karasa-Jaga/scalable/status/media-playlist-no-repeat-symbolic.svg

<svg height="16" width="16" xmlns="http://www.w3.org/2000/svg"><path d="m6 1v2h-1c-2.77 0-5 2.23-5 5s2.23 5 5 5v-2c-1.662 0-3-1.338-3-3s1.338-3 3-3h1v2l4-3zm5 2v2c1.662 0 3 1.338 3 3s-1.338 3-3 3h-1v-2l-4 3 4 3v-2h1c2.77 0 5-2.23 5-5s-2.23-5-5-5z" fill="#bebebe" opacity=".5"/></svg>

<?xml version="1.0" encoding="UTF-8" standalone="no"?>
<!-- Created with Inkscape (http://www.inkscape.org/) -->

<svg
   xmlns:dc="http://purl.org/dc/elements/1.1/"
   xmlns:cc="http://creativecommons.org/ns#"
   xmlns:rdf="http://www.w3.org/1999/02/22-rdf-syntax-ns#"
   xmlns:svg="http://www.w3.org/2000/svg"
   xmlns="http://www.w3.org/2000/svg"
   xmlns:inkscape="http://www.inkscape.org/namespaces/inkscape"
   version="1.1"
   width="16"
   height="16"
   id="svg7384">
  <title
     id="title9167">Gnome Symbolic Icon Theme</title>
  <defs
     id="defs11" />
  <metadata
     id="metadata90">
    <rdf:RDF>
      <cc:Work
         rdf:about="">
        <dc:format>image/svg+xml</dc:format>
        <dc:type
           rdf:resource="http://purl.org/dc/dcmitype/StillImage" />
        <dc:title>Gnome Symbolic Icon Theme</dc:title>
      </cc:Work>
    </rdf:RDF>
  </metadata>
  <path
     d="M 6,1 6,3 5,3 C 2.23,3 0,5.23 0,8 c 0,2.77 2.23,5 5,5 L 5,11 C 3.338,11 2,9.662 2,8 2,6.338 3.338,5 5,5 L 6,5 6,7 10,4 6,1 z m 5,2 0,2 c 1.662,0 3,1.338 3,3 0,1.662 -1.338,3 -3,3 l -1,0 0,-2 -4,3 4,3 0,-2 1,0 c 2.77,0 5,-2.23 5,-5 0,-2.77 -2.23,-5 -5,-5 z"
     inkscape:connector-curvature="0"
     id="rect3815"
     style="opacity:0.5;color:#bebebe;fill:#bebebe;fill-opacity:1;fill-rule:nonzero;stroke:none;stroke-width:1;marker:none;visibility:visible;display:inline;overflow:visible;enable-background:accumulate" />
</svg>
